X:10
T: Der verkleidete Markgrafensohn
N: Q0006B
O: Mitteleuropa, Deutschland / Frankreich, Lothringen, Gelmingen
R: Ballade, Braut - Werbung
M: 3/2
L: 1/8
K: G
d2 | d2G2A4A2B2 | c2A2B4z2
A2 | G2B2A4B2G2 | F4G4z2
G2 | B2GGA4A2B2 | c2A2B4z2
A2 | G2B2A4B2G2 | F4G4z2

